static/assets/images/exchanges/wigoswap.svg

<svg width="276" height="256" viewBox="0 0 276 256" fill="none" xmlns="http://www.w3.org/2000/svg">
<path fill-rule="evenodd" clip-rule="evenodd" d="M194.356 3.45785C184.079 0 172.57 0 149.545 0H125.577C102.552 0 91.0398 0 80.7664 3.45785C72.4157 6.2679 64.71 10.7167 58.1011 16.5435C49.9685 23.7115 44.214 33.6844 32.7014 53.6227L20.7177 74.3773C9.2051 94.3193 3.45066 104.288 1.3062 114.914C-0.4354 123.551 -0.4354 132.449 1.3062 141.086C3.45066 151.712 9.20881 161.681 20.7177 181.623L32.7014 202.377C44.214 222.319 49.9685 232.288 58.1011 239.456C64.71 245.283 72.4157 249.732 80.7664 252.542C91.0435 256 102.549 256 125.577 256H149.545C172.57 256 184.083 256 194.356 252.542C202.706 249.732 210.41 245.283 217.018 239.456C225.15 232.288 230.908 222.316 242.421 202.377L254.405 181.623C265.917 161.681 271.672 151.712 273.816 141.086C275.556 132.448 275.556 123.552 273.816 114.914C271.672 104.288 265.914 94.3193 254.401 74.3773L242.417 53.6227C230.908 33.6807 225.15 23.7115 217.018 16.5435C210.411 10.7177 202.708 6.26889 194.36 3.45785H194.356ZM185.938 67.7843C184.469 65.5879 183.79 65.1872 183.749 65.1613C183.194 64.9229 182.596 64.8 181.992 64.8C181.388 64.8 180.79 64.9229 180.235 65.1613C180.191 65.1872 179.516 65.5879 178.046 67.7843C176.436 70.1774 174.559 73.6315 171.732 78.848L144.985 128.204L171.743 177.326C174.57 182.513 176.447 185.945 178.05 188.323C179.519 190.501 180.195 190.902 180.239 190.928C181.36 191.41 182.625 191.41 183.745 190.928C183.79 190.902 184.461 190.501 185.934 188.323C187.533 185.945 189.414 182.513 192.241 177.323L212.796 139.59C216.031 133.647 216.825 132.022 217.125 130.452C217.411 128.968 217.415 127.436 217.133 125.952C216.836 124.383 216.042 122.754 212.818 116.806L192.253 78.848C189.425 73.6315 187.544 70.1774 185.938 67.7843ZM159.24 71.6726L136.793 113.1L114.347 71.6726C111.735 66.8531 109.535 62.7905 107.502 59.763C105.461 56.7207 102.886 53.5968 99.0796 51.9495C96.7172 50.9274 94.1704 50.4001 91.5963 50.4001C89.0222 50.4001 86.4754 50.9274 84.1129 51.9495C80.3026 53.5968 77.7315 56.7207 75.6909 59.7593C73.6577 62.7905 71.4539 66.8531 68.8457 71.6726L48.106 109.946L47.6607 110.774C45.097 115.493 43.0824 119.203 42.3107 123.258C41.6872 126.535 41.691 129.9 42.3218 133.176C43.101 137.227 45.123 140.937 47.6941 145.649L48.1468 146.477L68.8716 184.524C71.4836 189.318 73.6837 193.358 75.7169 196.371C77.7537 199.398 80.3286 202.503 84.1278 204.143C86.4861 205.161 89.0276 205.686 91.5963 205.686C94.1649 205.686 96.7064 205.161 99.0648 204.143C102.864 202.503 105.439 199.394 107.476 196.371C109.505 193.358 111.709 189.318 114.317 184.524L136.793 143.267L159.269 184.524C161.878 189.314 164.081 193.358 166.111 196.371C168.151 199.398 170.723 202.503 174.522 204.143C176.88 205.161 179.422 205.686 181.99 205.686C184.559 205.686 187.1 205.161 189.459 204.143C193.258 202.503 195.833 199.394 197.873 196.371C199.903 193.358 202.103 189.318 204.715 184.524L225.44 146.477L225.892 145.649C228.464 140.937 230.486 137.227 231.265 133.176C231.895 129.9 231.899 126.534 231.276 123.258C230.504 119.203 228.493 115.493 225.929 110.774L225.481 109.946L204.741 71.6726C202.133 66.8531 199.929 62.7868 197.896 59.763C195.855 56.7207 193.284 53.5968 189.474 51.9495C187.112 50.9279 184.566 50.401 181.992 50.401C179.419 50.401 176.873 50.9279 174.511 51.9495C170.7 53.5968 168.125 56.7207 166.089 59.7593C164.055 62.7905 161.852 66.8531 159.24 71.6726ZM101.844 177.323L128.601 128.2L101.855 78.848C99.0314 73.6315 97.1504 70.1774 95.5439 67.7843C94.071 65.5879 93.392 65.1872 93.3512 65.1613C92.7967 64.9235 92.1996 64.8008 91.5963 64.8008C90.9929 64.8008 90.3959 64.9235 89.8414 65.1613C89.7969 65.1872 89.1179 65.5879 87.6487 67.7843C86.0422 70.1774 84.1612 73.6315 81.334 78.848L60.7687 116.803C57.5446 122.754 56.7543 124.383 56.4538 125.952C56.1718 127.436 56.1755 128.965 56.4612 130.452C56.7617 132.022 57.5557 133.647 60.7947 139.59L81.3489 177.323C84.1723 182.513 86.0533 185.945 87.6561 188.323C89.1253 190.505 89.7969 190.902 89.8451 190.928C90.9618 191.41 92.2307 191.41 93.3475 190.928C93.392 190.902 94.0672 190.501 95.5365 188.323C97.1392 185.945 99.0203 182.513 101.844 177.323Z" fill="white"/>
</svg>

<svg xmlns="http://www.w3.org/2000/svg" fill="none" viewBox="0 0 276 256"><path fill="#fff" fill-rule="evenodd" d="M194.356 3.458C184.079 0 172.57 0 149.545 0h-23.968c-23.025 0-34.537 0-44.81 3.458A66.2 66.2 0 0 0 58.1 16.544c-8.132 7.168-13.887 17.14-25.4 37.079L20.718 74.377C9.205 94.32 3.45 104.288 1.306 114.914a66.2 66.2 0 0 0 0 26.172c2.145 10.626 7.903 20.595 19.412 40.537L32.7 202.377c11.513 19.942 17.268 29.911 25.4 37.079a66.2 66.2 0 0 0 22.665 13.086C91.043 256 102.55 256 125.577 256h23.968c23.025 0 34.538 0 44.811-3.458a66.2 66.2 0 0 0 22.662-13.086c8.132-7.168 13.89-17.14 25.403-37.079l11.984-20.754c11.512-19.942 17.267-29.911 19.411-40.537a66.3 66.3 0 0 0 0-26.172c-2.144-10.626-7.902-20.595-19.415-40.537l-11.984-20.754c-11.509-19.942-17.267-29.911-25.399-37.08A66.2 66.2 0 0 0 194.36 3.459zm-8.418 64.326c-1.469-2.196-2.148-2.597-2.189-2.623a4.45 4.45 0 0 0-3.514 0c-.044.026-.719.427-2.189 2.623-1.61 2.393-3.487 5.847-6.314 11.064l-26.747 49.356 26.758 49.122c2.827 5.187 4.704 8.619 6.307 10.997 1.469 2.178 2.145 2.579 2.189 2.605a4.43 4.43 0 0 0 3.506 0c.045-.026.716-.427 2.189-2.605 1.599-2.378 3.48-5.81 6.307-11l20.555-37.733c3.235-5.943 4.029-7.568 4.329-9.138a12 12 0 0 0 .008-4.5c-.297-1.569-1.091-3.198-4.315-9.146l-20.565-37.958c-2.828-5.216-4.709-8.67-6.315-11.064m-26.698 3.889L136.793 113.1l-22.446-41.427c-2.612-4.82-4.812-8.882-6.845-11.91-2.041-3.042-4.616-6.166-8.422-7.813a18.85 18.85 0 0 0-14.967 0c-3.81 1.647-6.382 4.77-8.422 7.81-2.033 3.03-4.237 7.093-6.845 11.913l-20.74 38.273-.445.828c-2.564 4.719-4.579 8.429-5.35 12.484a26.4 26.4 0 0 0 .01 9.918c.78 4.051 2.802 7.761 5.373 12.473l.453.828 20.725 38.047c2.612 4.794 4.812 8.834 6.845 11.847 2.037 3.027 4.612 6.132 8.41 7.772a18.84 18.84 0 0 0 14.938 0c3.799-1.64 6.374-4.749 8.411-7.772 2.029-3.013 4.233-7.053 6.841-11.847l22.476-41.257 22.476 41.257c2.609 4.79 4.812 8.834 6.842 11.847 2.04 3.027 4.612 6.132 8.411 7.772a18.84 18.84 0 0 0 14.937 0c3.799-1.64 6.374-4.749 8.414-7.772 2.03-3.013 4.23-7.053 6.842-11.847l20.725-38.047.452-.828c2.572-4.712 4.594-8.422 5.373-12.473.63-3.276.634-6.642.011-9.918-.772-4.055-2.783-7.765-5.347-12.484l-.448-.828-20.74-38.273c-2.608-4.82-4.812-8.886-6.845-11.91-2.041-3.042-4.612-6.166-8.422-7.813a18.85 18.85 0 0 0-14.963 0c-3.811 1.647-6.386 4.77-8.422 7.81-2.034 3.03-4.237 7.093-6.849 11.913m-57.396 105.65 26.757-49.123-26.746-49.352c-2.824-5.216-4.705-8.67-6.311-11.064-1.473-2.196-2.152-2.597-2.193-2.623a4.45 4.45 0 0 0-3.51 0c-.044.026-.723.427-2.192 2.623-1.607 2.393-3.488 5.847-6.315 11.064l-20.565 37.955c-3.224 5.951-4.015 7.58-4.315 9.149a12 12 0 0 0 .007 4.5c.3 1.57 1.095 3.195 4.334 9.138l20.554 37.733c2.823 5.19 4.704 8.622 6.307 11 1.47 2.182 2.14 2.579 2.19 2.605a4.42 4.42 0 0 0 3.501 0c.045-.026.72-.427 2.19-2.605 1.602-2.378 3.483-5.81 6.307-11" clip-rule="evenodd"/></svg>
